www/assets/icons/forward_30.svg

<svg xmlns="http://www.w3.org/2000/svg" width="24" height="24" viewBox="0 0 24 24" fill='currentColor'><path d="M18 14c0 3.31-2.69 6-6 6s-6-2.69-6-6 2.69-6 6-6v4l5-5-5-5v4c-4.42 0-8 3.58-8 8s3.58 8 8 8 8-3.58 8-8z"/><path d="M10.06 16.38c-.29 0-.62-.17-.62-.54h-.85c0 .97.9 1.23 1.45 1.23.87 0 1.51-.46 1.51-1.25 0-.66-.45-.9-.71-1 .11-.05.65-.32.65-.92 0-.21-.05-1.22-1.44-1.22-.62 0-1.4.35-1.4 1.16h.85c0-.34.31-.48.57-.48.59 0 .58.5.58.54 0 .52-.41.59-.63.59h-.46v.66h.45c.65 0 .7.42.7.64 0 .32-.21.59-.65.59m3.79-3.7c-.14 0-1.44-.08-1.44 1.82v.74c0 1.9 1.31 1.82 1.44 1.82.14 0 1.44.09 1.44-1.82v-.74c.01-1.91-1.3-1.82-1.44-1.82m.6 2.67c0 .77-.21 1.03-.59 1.03s-.6-.26-.6-1.03v-.97c0-.75.22-1.01.59-1.01.38 0 .6.26.6 1.01z"/></svg>

<svg width="24" height="24" viewBox="0 0 24 24" xmlns="http://www.w3.org/2000/svg" fill='currentColor'><path d="M18 14C18 17.31 15.31 20 12 20C8.69 20 6 17.31 6 14C6 10.69 8.69 8 12 8V12L17 7L12 2V6C7.58 6 4 9.58 4 14C4 18.42 7.58 22 12 22C16.42 22 20 18.42 20 14H18Z"/><path d="M10.06 16.38C9.77 16.38 9.44 16.21 9.44 15.84H8.59C8.59 16.81 9.49 17.07 10.04 17.07C10.91 17.07 11.55 16.61 11.55 15.82C11.55 15.16 11.1 14.92 10.84 14.82C10.95 14.77 11.49 14.5 11.49 13.9C11.49 13.69 11.44 12.68 10.05 12.68C9.43 12.68 8.65 13.03 8.65 13.84H9.5C9.5 13.5 9.81 13.36 10.07 13.36C10.66 13.36 10.65 13.86 10.65 13.9C10.65 14.42 10.24 14.49 10.02 14.49H9.56V15.15H10.01C10.66 15.15 10.71 15.57 10.71 15.79C10.71 16.11 10.5 16.38 10.06 16.38Z"/><path d="M13.85 12.68C13.71 12.68 12.41 12.6 12.41 14.5V15.24C12.41 17.14 13.72 17.06 13.85 17.06C13.99 17.06 15.29 17.15 15.29 15.24V14.5C15.3 12.59 13.99 12.68 13.85 12.68ZM14.45 15.35C14.45 16.12 14.24 16.38 13.86 16.38C13.48 16.38 13.26 16.12 13.26 15.35V14.38C13.26 13.63 13.48 13.37 13.85 13.37C14.23 13.37 14.45 13.63 14.45 14.38V15.35Z"/></svg>
